X:5775
T:Sandmount Reel, The
T:Mick Hand's
O:england
R:reel
D:De Danann: Selected Jigs & Reels
D:Mary Bergin: Feadoga Stain
D:Dervish: Harmony Hill
M:C|
K:Ador
eAAG ~A3G|EGDG EGDG|EAAG A2 (3Bcd|egfa gedg:|
eaag a2ba|gede gedg|eaag a2ga|bagb ~a3g|
eaag a2ba|gedB dega|bgaf gefd|~e3d e2ag||


